packages/axiom-materials/src/icon_svgs/format-title.svg

<svg height="16" viewBox="0 0 16 16" width="16" xmlns="http://www.w3.org/2000/svg"><path d="m6.40243902 7.93956044h-3.56368563l-.67750678 2.06043956h-2.16124661l3.67208672-10h1.88346884l3.69241192 10h-2.16124661zm-3.01490514-1.75392358 1.22628726-3.69241193 1.2398374 3.69241193zm10.49167632 3.67886178c-.0903347-.17615264-.1558263-.39521097-.1964769-.65718157-.4742572.52845793-1.0907822.79268293-1.8495935.79268293-.7181608 0-1.3132316-.20776667-1.7852304-.62330623-.47199874-.41553957-.70799457-.9394729-.70799457-1.57181572 0-.77687832.2879375-1.37307832.86382117-1.78861789.5758836-.41553956 1.4080794-.62556456 2.4966124-.6300813h.901084v-.4200542c0-.33875508-.0869458-.60975508-.2608401-.81300813-.1738942-.20325305-.4482817-.30487805-.8231707-.30487805-.3297216 0-.5883008.07904167-.7757453.23712737-.1874444.15808571-.2811653.37488571-.2811653.65040651h-1.95799455c0-.42457304.13098334-.81752304.39295393-1.17886179.26197062-.36133875.63233722-.64475959 1.11111112-.850271.4787738-.20551142 1.0162572-.30826559 1.6124661-.30826559.9033469 0 1.6203677.2269625 2.151084.68089431s.7960705 1.09191098.7960705 1.91395664v3.17750678c.0045167.6955771.1016251 1.22176876.2913279 1.57859078v.11517615zm-1.6192412-1.36178861c.289071 0 .5555544-.0643625.799458-.19308943.2439037-.12872693.4245703-.30148943.5420054-.51829269v-1.2601626h-.7317073c-.9801313 0-1.5018063.33875-1.5650406 1.01626016l-.0067751.11517616c0 .24390365.0858167.44489532.2574526.60298103.1716359.1580857.4065026.23712737.704607.23712737z" fill-rule="evenodd" transform="translate(0 3)"/></svg>

<?xml version="1.0" encoding="UTF-8"?>
<svg width="16px" height="16px" viewBox="0 0 16 16" version="1.1" xmlns="http://www.w3.org/2000/svg" xmlns:xlink="http://www.w3.org/1999/xlink">
    <!-- Generator: Sketch 51.3 (57544) - http://www.bohemiancoding.com/sketch -->
    <title>format-title</title>
    <g id="format-title" stroke="none" stroke-width="1" fill="none" fill-rule="evenodd">
        <g transform="translate(0.000000, 3.000000)" fill="#000000">
            <path d="M6.40243902,7.93956044 L2.83875339,7.93956044 L2.16124661,10 L0,10 L3.67208672,0 L5.55555556,0 L9.24796748,10 L7.08672087,10 L6.40243902,7.93956044 Z M3.38753388,6.18563686 L4.61382114,2.49322493 L5.85365854,6.18563686 L3.38753388,6.18563686 Z M13.8792102,9.86449864 C13.7888755,9.688346 13.7233839,9.46928767 13.6827333,9.20731707 C13.2084761,9.735775 12.5919511,10 11.8331398,10 C11.114979,10 10.5199082,9.79223333 10.0479094,9.37669377 C9.57591066,8.9611542 9.33991483,8.43722087 9.33991483,7.80487805 C9.33991483,7.02799973 9.62785233,6.43179973 10.203736,6.01626016 C10.7796196,5.6007206 11.6118154,5.3906956 12.7003484,5.38617886 L13.6014324,5.38617886 L13.6014324,4.96612466 C13.6014324,4.62736958 13.5144866,4.35636958 13.3405923,4.15311653 C13.1666981,3.94986348 12.8923106,3.84823848 12.5174216,3.84823848 C12.1877,3.84823848 11.9291208,3.92728015 11.7416763,4.08536585 C11.5542319,4.24345156 11.460511,4.46025156 11.460511,4.73577236 L9.50251645,4.73577236 C9.50251645,4.31119932 9.63349979,3.91824932 9.89547038,3.55691057 C10.157441,3.19557182 10.5278076,2.91215098 11.0065815,2.70663957 C11.4853553,2.50112815 12.0228387,2.39837398 12.6190476,2.39837398 C13.5223945,2.39837398 14.2394153,2.62533648 14.7701316,3.07926829 C15.3008479,3.5332001 15.5662021,4.17117927 15.5662021,4.99322493 L15.5662021,8.17073171 C15.5707188,8.86630881 15.6678272,9.39250047 15.85753,9.74932249 L15.85753,9.86449864 L13.8792102,9.86449864 Z M12.259969,8.50271003 C12.54904,8.50271003 12.8155234,8.43834753 13.059427,8.3096206 C13.3033307,8.18089367 13.4839973,8.00813117 13.6014324,7.79132791 L13.6014324,6.53116531 L12.8697251,6.53116531 C11.8895938,6.53116531 11.3679188,6.86991531 11.3046845,7.54742547 L11.2979094,7.66260163 C11.2979094,7.90650528 11.3837261,8.10749695 11.555362,8.26558266 C11.7269979,8.42366836 11.9618646,8.50271003 12.259969,8.50271003 Z"></path>
        </g>
    </g>
</svg>
